X: 13675
T: Fool's
R: jig
M: 6/8
K: Dmajor
D2E D2F|A2F DEF|G2F G2B|A2F DEF|
G3 .B2G|F3 .A2 F|E2D E2F|E2G F2E|
D2E D2F|A2F DEF|G2F G2B|A2F D2z|
d2c d2B|A2G F2E|F3 D3|1 D3- D2z:|2 D2z ABc||
.d2A .F2A|B2A .F2A|.d2A .F2A|B2A G2F|
G3 .e2G|F3 .d2F|E2D E2F|E2G F2E|
D2E D2F|A2F DEF|G2F G2B|A2F D2z|
d2c d2B|A2G F2E|F3 D3|D3 .dz2||

